src/client/icons/svg/mailbox.svg

<svg xmlns="http://www.w3.org/2000/svg" viewBox="0 0 512 512" id='svg-mailbox'><defs><filter id="shadow-1" height="300%" width="300%" x="-100%" y="-100%"><feFlood floodColor="rgba(110, 109, 109, 1)" result="flood"></feFlood><feComposite in="flood" in2="SourceGraphic" operator="atop" result="composite"></feComposite><feGaussianBlur in="composite" stdDeviation="15" result="blur"></feGaussianBlur><feOffset dx="6" dy="8" result="offset"></feOffset><feComposite in="SourceGraphic" in2="offset" operator="over"></feComposite></filter></defs><rect fill="#569656" fillOpacity="1" height="512" width="512" rx="99" ry="99"></rect><g class="" transform="translate(0,0)" ><path d="M375.4 17.744l-78 25.998V265.73l14-3.5V94.64l64-20zM433.3 126.31L329.4 152.282v124l-38.815 9.703-11.184 2.797v-124L207.29 182.81c5.175 3.946 9.705 8.82 13.513 14.323 10.15 14.657 16.29 33.678 20.427 54.357 7.38 36.9 8.056 78.79 8.125 110.252l238.012-59.504c-.043-31.71-.572-75.13-7.79-111.217-3.863-19.32-9.72-36.3-17.573-47.64-7.664-11.072-16.21-16.8-28.702-17.07zM176.4 190.255c-13.374 0-22.212 5.21-29.91 15.047-7.7 9.838-13.472 24.664-17.304 41.906-.835 3.755-1.572 7.622-2.236 11.558l93.107-18.622v-.002c-.45-1.635-.92-3.243-1.406-4.822-.48-1.562-.975-3.094-1.487-4.595l-.016-.05c-.013-.04-.028-.076-.04-.115-.478-1.393-.973-2.756-1.48-4.093l-.15-.402c-.522-1.366-1.055-2.705-1.607-4.008-.046-.108-.095-.212-.14-.32-.502-1.172-1.018-2.313-1.544-3.43l-.39-.826c-.17-.353-.34-.705-.514-1.052-.284-.57-.572-1.134-.863-1.688-.087-.162-.17-.33-.255-.49-.392-.734-.792-1.448-1.196-2.15-.12-.208-.24-.41-.36-.614-.305-.52-.614-1.032-.926-1.533-.128-.206-.257-.412-.386-.615-.427-.67-.858-1.328-1.297-1.963-7.852-11.344-16.6-17.124-29.6-17.124zm26.298 71.72l-87.723 17.544 43.862 14.933zm23.025 5.346l-63.758 47.21L89.4 289.827v68.332l141.607-24.414c-.562-21.47-1.945-44.85-5.284-66.422zm5.56 84.637l-37.273 6.427 37.338 4.668c-.01-3.564-.03-7.294-.064-11.096zm128.118.823l-30 7.5v133.973h30zm-226.378 16.12l-61.62 10.626v-6.612c-14.426 4.543-27.058 10.895-35.476 17.44-7.943 6.18-11.202 12.364-11.28 14.482-.04 1.06-.01 1.492 1.292 2.853 1.25 1.307 4.112 3.166 8.813 4.81 79.575 13.055 124.014-7.656 175.34-33.966z" fill="#fff" fillOpacity="1" filter="url(#shadow-1)"></path></g></svg>

<svg xmlns="http://www.w3.org/2000/svg" viewBox="0 0 512 512" id='svg-mailbox'><defs><linearGradient id="delapouite-mailbox-gradient-1"><stop offset="0%" stopColor="#edf3ee" stopOpacity="1"></stop><stop offset="100%" stopColor="#bdd2bf" stopOpacity="1"></stop></linearGradient><linearGradient id="delapouite-mailbox-gradient-3"><stop offset="0%" stopColor="#edf3ee" stopOpacity="1"></stop><stop offset="100%" stopColor="#bdd2bf" stopOpacity="1"></stop></linearGradient><linearGradient id="delapouite-mailbox-gradient-4"><stop offset="0%" stopColor="#edf3ee" stopOpacity="1"></stop><stop offset="100%" stopColor="#bdd2bf" stopOpacity="1"></stop></linearGradient><linearGradient id="delapouite-mailbox-gradient-5"><stop offset="0%" stopColor="#edf3ee" stopOpacity="1"></stop><stop offset="100%" stopColor="#bdd2bf" stopOpacity="1"></stop></linearGradient><linearGradient id="delapouite-mailbox-gradient-6"><stop offset="0%" stopColor="#edf3ee" stopOpacity="1"></stop><stop offset="100%" stopColor="#bdd2bf" stopOpacity="1"></stop></linearGradient><linearGradient id="delapouite-mailbox-gradient-7"><stop offset="0%" stopColor="#edf3ee" stopOpacity="1"></stop><stop offset="100%" stopColor="#bdd2bf" stopOpacity="1"></stop></linearGradient><linearGradient id="delapouite-mailbox-gradient-8"><stop offset="0%" stopColor="#edf3ee" stopOpacity="1"></stop><stop offset="100%" stopColor="#bdd2bf" stopOpacity="1"></stop></linearGradient><linearGradient id="delapouite-mailbox-gradient-9"><stop offset="0%" stopColor="#edf3ee" stopOpacity="1"></stop><stop offset="100%" stopColor="#bdd2bf" stopOpacity="1"></stop></linearGradient></defs><path d="M0 0h512v512H0z" fill="#46794d" fillOpacity="1"></path><g transform="translate(0,0)" ><g><path d="M375.4 17.744L297.4 43.742L297.4 265.73L311.4 262.23L311.4 94.64L375.4 74.64Z" className="selected" fill="#a83721" fillOpacity="1"></path><path d="M433.3 126.31L329.4 152.282L329.4 276.282L290.585 285.985L279.401 288.782L279.401 164.782L207.29 182.81C212.465 186.756 216.995 191.63 220.803 197.133C230.953 211.79 237.093 230.811 241.23 251.49C248.61 288.39 249.286 330.28 249.355 361.742L487.367 302.238C487.324 270.528 486.795 227.108 479.577 191.021C475.714 171.701 469.857 154.721 462.004 143.381C454.34 132.309 445.794 126.581 433.302 126.311Z" fill="url(#delapouite-mailbox-gradient-3)"></path><path d="M176.4 190.255C163.026 190.255 154.188 195.465 146.49 205.302C138.79 215.14 133.018 229.966 129.186 247.208C128.351 250.963 127.614 254.83 126.95 258.766L220.057 240.144L220.057 240.142C219.607 238.507 219.137 236.899 218.651 235.32C218.171 233.758 217.676 232.226 217.164 230.725L217.148 230.675C217.135 230.635 217.12 230.599 217.108 230.56C216.63 229.167 216.135 227.804 215.628 226.467L215.478 226.065C214.956 224.699 214.423 223.36 213.871 222.057C213.825 221.949 213.776 221.845 213.731 221.737C213.229 220.565 212.713 219.424 212.187 218.307L211.797 217.481C211.627 217.128 211.457 216.776 211.283 216.429C210.999 215.859 210.711 215.295 210.42 214.741C210.333 214.579 210.25 214.411 210.165 214.251C209.773 213.517 209.373 212.803 208.969 212.101C208.849 211.893 208.729 211.691 208.609 211.487C208.304 210.967 207.995 210.455 207.683 209.954C207.555 209.748 207.426 209.542 207.297 209.339C206.87 208.669 206.439 208.011 206 207.376C198.148 196.032 189.4 190.252 176.4 190.252Z" fill="url(#delapouite-mailbox-gradient-4)"></path><path d="M202.698 261.975L114.975 279.519L158.837 294.452Z" fill="url(#delapouite-mailbox-gradient-5)"></path><path d="M225.723 267.321L161.965 314.531L89.4 289.827L89.4 358.159L231.007 333.745C230.445 312.275 229.062 288.895 225.723 267.323Z" fill="url(#delapouite-mailbox-gradient-6)"></path><path d="M231.283 351.958L194.01 358.385L231.348 363.053C231.338 359.489 231.318 355.759 231.284 351.957Z" fill="url(#delapouite-mailbox-gradient-7)"></path><path d="M359.401 352.781L329.401 360.281L329.401 494.254L359.401 494.254Z" fill="url(#delapouite-mailbox-gradient-8)"></path><path d="M133.023 368.901L71.403 379.527L71.403 372.915C56.977 377.458 44.345 383.81 35.927 390.355C27.984 396.535 24.725 402.719 24.647 404.837C24.607 405.897 24.637 406.329 25.939 407.69C27.189 408.997 30.051 410.856 34.752 412.5C114.327 425.555 158.766 404.844 210.092 378.534Z" fill="url(#delapouite-mailbox-gradient-9)"></path></g></g></svg>
